X:185
T:Reel 185
M:4/4
K:Amaj
L:1/8
E>C (3CCC ECDC|B,>E, (3G,E,E, B,E,G,E,|E,>A, (3A,A,A, E2DC|B,E,E,D CA,A,2|AGAE FEDC|B,E,E,F, G,F,F,G,|E,A,CE A,2GF|ECDB, CA,A,2|EAAG A2GA|B>E (3GFE BGEG|AGE (3CDE A2GA|BEFD CA,A,2|EAGA B2GA|BABc dBcABA|GEFA GEDA| (3FGA GB cAA2|
